src/svg/blast_illustration.svg

<svg width="262" height="253" fill="none" xmlns="http://www.w3.org/2000/svg"><path d="M94.2 115h-90v30h90v-30zM141.2 61h-128v36h128V61zM258 109h-71v20h71v-20z" fill="#014371"/><path opacity=".8" d="M155.2 154h-100v35h100v-35z" fill="#014371"/><path opacity=".7" d="M239.2 125h-126v20h126v-20z" fill="#014371"/><path opacity=".8" d="M214.2 74h-130v38h130V74z" fill="#014371"/><path d="M258 59h-90v20h90V59z" fill="#00639A"/><path opacity=".9" d="M258 160h-67v20h67v-20z" fill="#126A9F"/><path d="M248.4 218.9h-108v21.3h108v-21.3zM106 223.6H6v20h100v-20z" fill="#00639A"/><path d="M226.4 175.9H99.5v21.3h126.9v-21.3z" fill="#126A9F"/><path opacity=".9" d="M106.2 18H4.2v20h102V18z" fill="#126A9F"/><path opacity=".8" d="M258 18H128v20h130V18z" fill="#014371"/><path opacity=".8" d="M84 47.4H4v20h80v-20z" fill="#126A9F"/><path opacity=".4" d="M257.7 45H149.2v21.3h108.5V45z" fill="#126A9F"/><path opacity=".6" d="M218.2 149h-126v20h126v-20z" fill="#126A9F"/><path opacity=".7" d="M77 177H4.4v20.3H77V177z" fill="#00639A"/><path opacity=".5" d="M170.2 101h-128v22h128v-22zM195.1 2h-130v25h130V2z" fill="#126A9F"/><path opacity=".6" d="M180.2 35h-125v22h125V35z" fill="#126A9F"/><path opacity=".7" d="M74.2 151h-70v20h70v-20zM195.4 208.9h-128v20h128v-20z" fill="#126A9F"/></svg>

<svg width="262" height="253" viewBox="0 0 262 253" fill="none" xmlns="http://www.w3.org/2000/svg">
<path d="M94.2 115H4.20001V145H94.2V115Z" fill="#014371"/>
<path d="M141.2 61H13.2V97H141.2V61Z" fill="#014371"/>
<path d="M258 109H187V129H258V109Z" fill="#014371"/>
<path opacity="0.8" d="M155.2 154H55.2V189H155.2V154Z" fill="#014371"/>
<path opacity="0.7" d="M239.2 125H113.2V145H239.2V125Z" fill="#014371"/>
<path opacity="0.8" d="M214.2 74H84.2V112H214.2V74Z" fill="#014371"/>
<path d="M258 59H168V79H258V59Z" fill="#00639A"/>
<path opacity="0.9" d="M258 160H191V180H258V160Z" fill="#126A9F"/>
<path d="M248.4 218.9H140.4V240.2H248.4V218.9Z" fill="#00639A"/>
<path d="M106 223.6H6V243.6H106V223.6Z" fill="#00639A"/>
<path d="M226.4 175.9H99.5V197.2H226.4V175.9Z" fill="#126A9F"/>
<path opacity="0.9" d="M106.2 18H4.20001V38H106.2V18Z" fill="#126A9F"/>
<path opacity="0.8" d="M258 18H128V38H258V18Z" fill="#014371"/>
<path opacity="0.8" d="M84 47.4H4V67.4H84V47.4Z" fill="#126A9F"/>
<path opacity="0.4" d="M257.7 45H149.2V66.3H257.7V45Z" fill="#126A9F"/>
<path opacity="0.6" d="M218.2 149H92.2V169H218.2V149Z" fill="#126A9F"/>
<path opacity="0.7" d="M77 177H4.40002V197.3H77V177Z" fill="#00639A"/>
<path opacity="0.5" d="M170.2 101H42.2V123H170.2V101Z" fill="#126A9F"/>
<path opacity="0.5" d="M195.1 2H65.1V27H195.1V2Z" fill="#126A9F"/>
<path opacity="0.6" d="M180.2 35H55.2V57H180.2V35Z" fill="#126A9F"/>
<path opacity="0.7" d="M74.2 151H4.20001V171H74.2V151Z" fill="#126A9F"/>
<path opacity="0.7" d="M195.4 208.9H67.4V228.9H195.4V208.9Z" fill="#126A9F"/>
</svg>
